X:1
T:In a Feed Box, in a Stable
T:In a Feed Box, in a Stable
T:John Zundel, 1870
T:Carolyn Winfrey Gillette, 1998
T:© 1998 Carolyn Winfrey Gillette Courtesy of the Cyber Hymnal™
C:John Zundel, 1870
Z:© 1998 Carolyn Winfrey Gillette
Z:Courtesy of the Cyber Hymnal™
%%score ( 1 2 ) ( 3 4 )
L:1/8
Q:1/4=112
M:4/4
K:Bb
V:1 treble 
V:2 treble 
V:3 bass 
V:4 bass 
V:1
 [DF]2 [DF]2 [EG]2 [DF]2 | [Fd]2 ([Ec][Fd]) [Ec]2 [DB]2 | [FA]2 [EG]2 [GB]2 [EG]2 | %3
w: 1.~In a feed box,|in a * sta- ble,|Je- sus slept up-|
w: 2.~In a shel- ter,|poor and * home- less,|Sleeps a child up-|
w: 3.~In the church, we|seek your * pr- esence;|Prince of Peace, you|
 [DF]2 (EF) [B,D]4 | [DF]2 [DF]2 [EG]2 [DF]2 | [Fd]2 ([Ec][Fd]) [Ec]2 [DB]2 | %6
w: on the * hay;|So, our God, you|came a- * mong us,|
w: on her * bed;|In a base- ment|hides a * fam- ily,|
w: meet us * here:|See! A per- son|seek- ing * shel- ter.|
 [EG]2 [Ge]2 [Fd]2 [FB]2 | [EA]2 (GA) [DB]4 | [DB]2 [GB]2 [GB]2 [^FA]2 | G2 (AG) [D^F]2 D2 | %10
w: Bring- ing peace on|earth that * day.|Beau- ti- ful up-|on the * mount- ain!|
w: Bombs ex- plod- ing|o- ver- * head.|Je- sus, you knew|want and * hun- ger;|
w: See! A- no- ther|filled with * fear.|See! A world where|lives are * brok- en;|
 [Dd]2 [Fd]2 [Ge]2 [Fd]2 | [Fc]2 (cd) c4 | [DF]2 [DF]2 [EG]2 [DF]2 | [Fd]2 ([Ec][Fd]) [Ec]2 [DB]2 | %14
w: Christ, you bring us|God’s sha- * lom;|May we share your|love and * jus- tice|
w: Your own fam- ily|fled the * sword.|May we see you,|may we * hear you,|
w: Give us strength and|help us * care,|Till our love for|ev- ery * neigh- bor|
 [EG]2 [Ge]2 [Fd]2 [FB]2 | [EA]2 (GA) [DB]4 |] %16
w: In each land and|town and * home.|
w: In each one op-|pressed or * poor.|
w: Fills each thought and|act and * prayer.|
V:2
 x8 | x8 | x8 | x2 C2 x4 | x8 | x8 | x8 | x2 E2 x4 | x8 | G2 D2 x D2 x | x8 | x2 =E2 (F2 _E2) | %12
 x8 | x8 | x8 | x2 E2 x4 |] %16
V:3
 [B,,F,]2 [B,,F,]2 [B,,G,]2 [B,,F,]2 | [B,,B,]2 [F,A,]2 [F,A,]2 [B,,B,]2 | %2
 [E,B,]2 [E,B,]2 [E,B,]2 [E,B,]2 | [F,B,]2 [F,,A,]2 [B,,F,]4 | %4
 [B,,F,]2 [B,,F,]2 [B,,G,]2 [B,,F,]2 | [B,,B,]2 [F,A,]2 [^F,A,]2 [G,B,]2 | %6
 [E,B,]2 [E,B,]2 [F,B,]2 [F,D]2 | [F,C]2 [F,,F,]2 [B,,F,]4 | [G,,G,]2 [B,,D]2 [D,D]2 [D,C]2 | %9
 [D,B,]2 (CB,) [D,A,]2 D,2 | [B,,B,]2 [B,,B,]2 B,2 [B,,B,]2 | [C,A,]2 [C,B,]2 [F,A,]4 | %12
 [B,,F,]2 [B,,F,]2 [B,,G,]2 [B,,F,]2 | [B,,B,]2 [F,A,]2 [^F,A,]2 [G,B,]2 | %14
 [E,B,]2 [E,B,]2 [F,B,]2 [F,D]2 | [F,C]2 [F,,F,]2 [B,,F,]4 |] %16
V:4
 x8 | x8 | x8 | x8 | x8 | x8 | x8 | x8 | x8 | x2 D,2 x D,2 x | x4 B,2 x2 | x8 | x8 | x8 | x8 | %15
 x8 |] %16

